X:214
T:New Scotch Sett No.4. Le4.214
T:Old Towler,aka
C:William Shield
M:6/8
L:1/8
Q:3/8=90
B:L.Leadley MS#4 c1850
Z:Village Music Project 2016 Steve Mansfield
K:D
A | d>ed f>ga | A>BA ABc | d2b afd | e3 f2e |
d>ed fga | A>BA A2b | a>gf e>de | d3- d2 ||
d | c>de e>fe | A3- A2c | cde ef^g | a3- a2g |
f>ed d<Bc | d2e f2^a | (bf).e (de).c | B3- B2 A |
d>ed f>gf | d2d d2A | dfb afd | e3 e2e |
ffe def | gab a3 | a>gf e>de | d3 d2 !D.C.! |]

